sldassets/icons/utility/shift_ui.svg

<?xml version="1.0"?><svg xmlns="http://www.w3.org/2000/svg" width="52" height="52" viewBox="0 0 52 52"><g fill="#fff"><path d="m27.8 40.7h20.2c1.1 0 2 0.9 2 2v5.7c0 1.1-0.9 2-2 2h-20.2c-1.1 0-2-0.9-2-2v-5.7c0-1.1 0.9-2 2-2z m-23.8-23.2h44c1.1 0 2 0.9 2 2v13.6c0 1.1-0.9 2-2 2h-44c-1.1 0-2-0.9-2-2v-13.6c0-1.1 0.9-2 2-2z m0-15.2h20.2c1.1 0 2 0.9 2 2v5.7c0 1.1-0.9 2-2 2h-20.2c-1.1 0-2-0.9-2-2v-5.7c0-1.1 0.9-2 2-2z"></path></g></svg>

<?xml version="1.0" encoding="utf-8"?>
<!-- Generator: Adobe Illustrator 23.0.2, SVG Export Plug-In . SVG Version: 6.00 Build 0)  -->
<svg version="1.1" id="Layer_1" xmlns="http://www.w3.org/2000/svg" xmlns:xlink="http://www.w3.org/1999/xlink" x="0px" y="0px"
	 width="52px" height="52px" viewBox="0 0 52 52" enable-background="new 0 0 52 52" xml:space="preserve">
<g id="padding" display="none">
	<path display="inline" opacity="0.2" fill="#FFFFFF" enable-background="new" d="M0,0v52h52V0H0z M49.9,49.9H2.1V2.1h47.8
		C49.9,2.1,49.9,49.9,49.9,49.9z"/>
</g>
<g id="live_area" display="none">
	<rect x="2" y="2" display="inline" fill="none" stroke-width="0.25" stroke-miterlimit="10" width="48" height="48"/>
</g>
<g id="grid" display="none">
	<g display="inline" opacity="0.5">
		<line fill="none" stroke-width="0.25" stroke-miterlimit="10" x1="50" y1="2" x2="2" y2="50"/>
		<line fill="none" stroke-width="0.25" stroke-miterlimit="10" x1="2" y1="2" x2="49.9" y2="50"/>
		<rect x="2" y="2" fill="none" stroke-width="0.25" stroke-miterlimit="10" width="2" height="48"/>
		<rect x="4" y="2" fill="none" stroke-width="0.25" stroke-miterlimit="10" width="2" height="48"/>
		<rect x="6" y="2" fill="none" stroke-width="0.25" stroke-miterlimit="10" width="2" height="48"/>
		<rect x="8" y="2" fill="none" stroke-width="0.25" stroke-miterlimit="10" width="2" height="48"/>
		<rect x="10" y="2" fill="none" stroke-width="0.25" stroke-miterlimit="10" width="2" height="48"/>
		<rect x="12" y="2" fill="none" stroke-width="0.25" stroke-miterlimit="10" width="2" height="48"/>
		<rect x="14" y="2" fill="none" stroke-width="0.25" stroke-miterlimit="10" width="2" height="48"/>
		<rect x="16" y="2" fill="none" stroke-width="0.25" stroke-miterlimit="10" width="2" height="48"/>
		<rect x="18" y="2" fill="none" stroke-width="0.25" stroke-miterlimit="10" width="2" height="48"/>
		<rect x="20" y="2" fill="none" stroke-width="0.25" stroke-miterlimit="10" width="2" height="48"/>
		<rect x="22" y="2" fill="none" stroke-width="0.25" stroke-miterlimit="10" width="2" height="48"/>
		<rect x="24" y="2" fill="none" stroke-width="0.25" stroke-miterlimit="10" width="2" height="48"/>
		<rect x="26" y="2" fill="none" stroke-width="0.25" stroke-miterlimit="10" width="2" height="48"/>
		<rect x="28" y="2" fill="none" stroke-width="0.25" stroke-miterlimit="10" width="2" height="48"/>
		<rect x="30" y="2" fill="none" stroke-width="0.25" stroke-miterlimit="10" width="2" height="48"/>
		<rect x="32" y="2" fill="none" stroke-width="0.25" stroke-miterlimit="10" width="2" height="48"/>
		<rect x="34" y="2" fill="none" stroke-width="0.25" stroke-miterlimit="10" width="2" height="48"/>
		<rect x="36" y="2" fill="none" stroke-width="0.25" stroke-miterlimit="10" width="2" height="48"/>
		<rect x="38" y="2" fill="none" stroke-width="0.25" stroke-miterlimit="10" width="2" height="48"/>
		<rect x="40" y="2" fill="none" stroke-width="0.25" stroke-miterlimit="10" width="2" height="48"/>
		<rect x="42" y="2" fill="none" stroke-width="0.25" stroke-miterlimit="10" width="2" height="48"/>
		<rect x="44" y="2" fill="none" stroke-width="0.25" stroke-miterlimit="10" width="2" height="48"/>
		<rect x="46" y="2" fill="none" stroke-width="0.25" stroke-miterlimit="10" width="2" height="48"/>
		<rect x="48" y="2" fill="none" stroke-width="0.25" stroke-miterlimit="10" width="2" height="48"/>
		<rect x="2" y="48" fill="none" stroke-width="0.25" stroke-miterlimit="10" width="48" height="2"/>
		<rect x="2" y="46" fill="none" stroke-width="0.25" stroke-miterlimit="10" width="48" height="2"/>
		<rect x="2" y="44" fill="none" stroke-width="0.25" stroke-miterlimit="10" width="48" height="2"/>
		<rect x="2" y="42" fill="none" stroke-width="0.25" stroke-miterlimit="10" width="48" height="2"/>
		<rect x="2" y="40" fill="none" stroke-width="0.25" stroke-miterlimit="10" width="48" height="2"/>
		<rect x="2" y="38" fill="none" stroke-width="0.25" stroke-miterlimit="10" width="48" height="2"/>
		<rect x="2" y="36" fill="none" stroke-width="0.25" stroke-miterlimit="10" width="48" height="2"/>
		<rect x="2" y="34" fill="none" stroke-width="0.25" stroke-miterlimit="10" width="48" height="2"/>
		<rect x="2" y="32" fill="none" stroke-width="0.25" stroke-miterlimit="10" width="48" height="2"/>
		<rect x="2" y="30" fill="none" stroke-width="0.25" stroke-miterlimit="10" width="48" height="2"/>
		<rect x="2" y="28" fill="none" stroke-width="0.25" stroke-miterlimit="10" width="48" height="2"/>
		<rect x="2" y="26" fill="none" stroke-width="0.25" stroke-miterlimit="10" width="48" height="2"/>
		<rect x="2" y="24" fill="none" stroke-width="0.25" stroke-miterlimit="10" width="48" height="2"/>
		<rect x="2" y="22" fill="none" stroke-width="0.25" stroke-miterlimit="10" width="48" height="2"/>
		<rect x="2" y="20" fill="none" stroke-width="0.25" stroke-miterlimit="10" width="48" height="2"/>
		<rect x="2" y="18" fill="none" stroke-width="0.25" stroke-miterlimit="10" width="48" height="2"/>
		<rect x="2" y="16" fill="none" stroke-width="0.25" stroke-miterlimit="10" width="48" height="2"/>
		<rect x="2" y="14" fill="none" stroke-width="0.25" stroke-miterlimit="10" width="48" height="2"/>
		<rect x="2" y="12" fill="none" stroke-width="0.25" stroke-miterlimit="10" width="48" height="2"/>
		<rect x="2" y="10" fill="none" stroke-width="0.25" stroke-miterlimit="10" width="48" height="2"/>
		<rect x="2" y="8" fill="none" stroke-width="0.25" stroke-miterlimit="10" width="48" height="2"/>
		<rect x="2" y="6" fill="none" stroke-width="0.25" stroke-miterlimit="10" width="48" height="2"/>
		<rect x="2" y="4" fill="none" stroke-width="0.25" stroke-miterlimit="10" width="48" height="2"/>
		<rect x="2" y="2" fill="none" stroke-width="0.25" stroke-miterlimit="10" width="48" height="2"/>
	</g>
</g>
<g>
	<path fill="#FFFFFF" d="M27.8,40.7H48c1.1,0,2,0.9,2,2v5.7c0,1.1-0.9,2-2,2H27.8c-1.1,0-2-0.9-2-2v-5.7
		C25.8,41.6,26.7,40.7,27.8,40.7z"/>
	<path fill="#FFFFFF" d="M4,17.5h44c1.1,0,2,0.9,2,2v13.6c0,1.1-0.9,2-2,2H4c-1.1,0-2-0.9-2-2V19.5C2,18.4,2.9,17.5,4,17.5z"/>
	<path fill="#FFFFFF" d="M4,2.3h20.2c1.1,0,2,0.9,2,2V10c0,1.1-0.9,2-2,2H4c-1.1,0-2-0.9-2-2V4.3C2,3.2,2.9,2.3,4,2.3z"/>
</g>
</svg>
